Adwaita++/actions/16/distribute-remove-overlaps.svg

<svg height="16" viewBox="0 0 16 16" width="16" xmlns="http://www.w3.org/2000/svg">
  <path d="m1 1v4h4v-4zm5 0v14h4v-14zm5 0v14h4v-14zm-10 5v9h4v-9z" fill="#474747"/>
</svg>

<svg xmlns="http://www.w3.org/2000/svg" width="16" height="16" viewBox="0 0 16 16">
 <defs>
  <style id="current-color-scheme" type="text/css">
   .ColorScheme-Text { color:#474747; } .ColorScheme-Highlight { color:#4285f4; }
  </style>
 </defs>
 <path style="fill:currentColor" class="ColorScheme-Text" d="M 1 1 L 1 5 L 5 5 L 5 1 L 1 1 z M 6 1 L 6 15 L 10 15 L 10 1 L 6 1 z M 11 1 L 11 15 L 15 15 L 15 1 L 11 1 z M 1 6 L 1 15 L 5 15 L 5 6 L 1 6 z"/>
</svg>
